X:535
T:Ashmoleen House
M:C|
L:1/8
C:Tommy Gunn
R:reel
D:Cherish the Ladies: New Day Dawning
Z:Devin McCabe
K:D
A~F3 EDB,A,|D2 (3FED FA A/2A/2A|defd efdB|AFDE F~E3|
!A~F3 EDB,A,|DEED FA A/2A/2A|ABde dBAF|1A,B,DG FDDB:|2A,B,DG FDDc|
!:defg ~a3b|afdf e~B3|defg ~a3b|afdf e2ag|
!f~d3 A~d3|ed (3Bcd egfe|dBAF ~A3z|1A,B,DG FDDc:|A,B,DG FDDB||
